icon/cg/twitter.svg

<svg viewBox="0 0 24 24" fill="none" xmlns="http://www.w3.org/2000/svg" height="1em" width="1em">
  <path fill-rule="evenodd" clip-rule="evenodd" d="M8 3C9.10457 3 10 3.89543 10 5V8H16C17.1046 8 18 8.89543 18 10C18 11.1046 17.1046 12 16 12H10V14C10 15.6569 11.3431 17 13 17H16C17.1046 17 18 17.8954 18 19C18 20.1046 17.1046 21 16 21H13C9.13401 21 6 17.866 6 14V5C6 3.89543 6.89543 3 8 3Z" fill="currentColor"/>
</svg>

<svg width="24" height="24" fill="none" xmlns="http://www.w3.org/2000/svg"><path fill-rule="evenodd" clip-rule="evenodd" d="M8 3a2 2 0 0 1 2 2v3h6a2 2 0 1 1 0 4h-6v2a3 3 0 0 0 3 3h3a2 2 0 1 1 0 4h-3a7 7 0 0 1-7-7V5a2 2 0 0 1 2-2Z" fill="currentColor"/></svg>
